exports/child-deaths-UN-data_v1_850x600.svg

<svg xmlns="http://www.w3.org/2000/svg" version="1.1" style="background-color:#fff;-webkit-font-smoothing:antialiased" width="850" height="600" font-family="'Helvetica Neue',Helvetica,Arial,sans-serif" font-size="18" text-rendering="optimizeLegibility"><g class="ChartTab"><g class="HeaderView"><g opacity=".8" transform="matrix(.31 0 0 .31 770 15)"><a xmlns:xlink="http://www.w3.org/1999/xlink" xlink:href="https://ourworldindata.org" target="_blank"><g><path fill="#1B2543" d="M0 0h211.2v130.1H0z"/><path fill="#E63912" d="M0 112.2h211.2v17.9H0z"/><g><path fill="none" d="M1.2 12.3h210.2v99.2H1.2z"/><path fill="#FFF" d="M37.8 32.2c0 12.7-7.7 19.4-17.1 19.4-9.7 0-16.6-7.5-16.6-18.7 0-11.7 7.3-19.3 17.1-19.3 10.1.1 16.6 7.7 16.6 18.6zm-28.6.6c0 7.9 4.3 14.9 11.8 14.9 7.5 0 11.8-6.9 11.8-15.3 0-7.3-3.8-14.9-11.8-14.9-7.9 0-11.8 7.3-11.8 15.3zM62.7 43.8c0 2.7.1 5.1.2 7.2h-4.3l-.3-4.3h-.1c-1.3 2.1-4 4.9-8.8 4.9-4.2 0-9.1-2.3-9.1-11.6V24.6h4.8v14.6c0 5 1.5 8.4 5.9 8.4 3.2 0 5.5-2.2 6.3-4.4.3-.7.4-1.6.4-2.5V24.6h4.8v19.2zM67.3 32.8c0-3.1-.1-5.8-.2-8.2h4.2l.2 5.2h.2c1.2-3.5 4.1-5.8 7.3-5.8.5 0 .9.1 1.4.2v4.5c-.5-.1-1-.2-1.6-.2-3.4 0-5.8 2.6-6.5 6.2-.1.7-.2 1.4-.2 2.2V51h-4.8V32.8zM95.4 51L86 14.2h5l4.4 18.6c1.1 4.6 2.1 9.2 2.7 12.7h.1c.6-3.7 1.8-8 3-12.8l4.9-18.5h5l4.5 18.7c1 4.4 2 8.7 2.6 12.6h.1c.8-4 1.8-8.1 3-12.7l4.9-18.5h4.9L120.6 51h-5L111 31.9c-1.1-4.7-1.9-8.3-2.4-12h-.1c-.7 3.7-1.5 7.3-2.8 12L100.4 51h-5zM154.9 37.6c0 9.8-6.8 14-13.2 14-7.2 0-12.7-5.2-12.7-13.6 0-8.8 5.8-14 13.1-14 7.7 0 12.8 5.5 12.8 13.6zm-21 .3c0 5.8 3.3 10.1 8 10.1 4.6 0 8-4.3 8-10.3 0-4.5-2.2-10.1-7.9-10.1s-8.1 5.2-8.1 10.3zM158.2 32.8c0-3.1-.1-5.8-.2-8.2h4.2l.2 5.2h.2c1.2-3.5 4.1-5.8 7.3-5.8.5 0 .9.1 1.4.2v4.5c-.5-.1-1-.2-1.6-.2-3.4 0-5.8 2.6-6.5 6.2-.1.7-.2 1.4-.2 2.2V51h-4.8V32.8zM173.5 12.3h4.8V51h-4.8V12.3zM206.5 12.3v31.9c0 2.3.1 5 .2 6.8h-4.3l-.2-4.6h-.2c-1.5 2.9-4.7 5.2-9 5.2-6.4 0-11.3-5.4-11.3-13.4-.1-8.8 5.4-14.2 11.9-14.2 4 0 6.8 1.9 8 4h.1V12.3h4.8zm-4.8 23.1c0-.6-.1-1.4-.2-2a7 7 0 00-6.9-5.6c-5 0-7.9 4.4-7.9 10.2 0 5.3 2.6 9.8 7.8 9.8 3.2 0 6.2-2.1 7.1-5.7.2-.7.2-1.3.2-2.1v-4.6zM42.8 64c.1 1.6-1.1 2.9-3.1 2.9-1.7 0-2.9-1.3-2.9-2.9 0-1.7 1.3-3 3-3 1.9 0 3 1.3 3 3zm-5.4 33.8V71.4h4.8v26.4h-4.8zM47.5 78.6c0-2.7-.1-5-.2-7.1h4.3l.3 4.4h.1c1.3-2.5 4.4-5 8.8-5 3.7 0 9.4 2.2 9.4 11.2v15.8h-4.8V82.6c0-4.3-1.6-7.8-6.1-7.8-3.2 0-5.6 2.2-6.5 4.9-.2.6-.3 1.4-.3 2.2v15.9h-4.8V78.6zM84 61.6c2.9-.4 6.3-.8 10.1-.8 6.8 0 11.7 1.6 14.9 4.6 3.3 3 5.2 7.3 5.2 13.2 0 6-1.9 10.9-5.3 14.3-3.4 3.4-9.1 5.3-16.3 5.3-3.4 0-6.2-.2-8.6-.4V61.6zm4.8 32.5c1.2.2 3 .3 4.8.3 10.2 0 15.7-5.7 15.7-15.6.1-8.7-4.9-14.2-14.9-14.2-2.5 0-4.3.2-5.6.5v29zM132.1 97.8l-.4-3.3h-.2a9.79 9.79 0 01-8.1 3.9c-5.4 0-8.1-3.8-8.1-7.6 0-6.4 5.7-9.9 15.9-9.8v-.5c0-2.2-.6-6.1-6-6.1-2.5 0-5 .8-6.9 2l-1.1-3.2c2.2-1.4 5.4-2.3 8.7-2.3 8.1 0 10.1 5.5 10.1 10.8v9.9c0 2.3.1 4.5.4 6.3h-4.3zm-.7-13.4c-5.3-.1-11.2.8-11.2 5.9 0 3.1 2.1 4.6 4.5 4.6 3.4 0 5.6-2.2 6.4-4.4.2-.5.3-1 .3-1.5v-4.6zM146.6 63.9v7.6h6.9v3.7h-6.9v14.2c0 3.3.9 5.1 3.6 5.1 1.3 0 2.2-.2 2.8-.3l.2 3.6c-.9.4-2.4.7-4.3.7-2.2 0-4-.7-5.2-2-1.4-1.4-1.9-3.8-1.9-6.9V75.1h-4.1v-3.7h4.1v-6.3l4.8-1.2zM171.4 97.8l-.4-3.3h-.2a9.79 9.79 0 01-8.1 3.9c-5.4 0-8.1-3.8-8.1-7.6 0-6.4 5.7-9.9 15.9-9.8v-.5c0-2.2-.6-6.1-6-6.1-2.5 0-5 .8-6.9 2l-1.1-3.2c2.2-1.4 5.4-2.3 8.7-2.3 8.1 0 10.1 5.5 10.1 10.8v9.9c0 2.3.1 4.5.4 6.3h-4.3zm-.7-13.4c-5.3-.1-11.2.8-11.2 5.9 0 3.1 2.1 4.6 4.5 4.6 3.4 0 5.6-2.2 6.4-4.4.2-.5.3-1 .3-1.5v-4.6z"/></g></g></a></g><a href="https://ourworldindata.org/grapher/child-deaths-UN-data" target="_blank"><text font-size="27" x="15" y="36.6" fill="#555"><tspan x="15" y="36.6">Child deaths per year</tspan></text></a></g><g class="LineChart"><defs><clipPath id="a"><path d="M78.53 0h830v963h-830z"/></clipPath></defs><g class="AxisBoxView"><g class="HorizontalAxis" fill="#666" text-anchor="middle" font-size="16.2"><text x="88.5" y="556.5">1960</text><text x="212.9" y="556.5">1970</text><text x="337.2" y="556.5">1980</text><text x="461.6" y="556.5">1990</text><text x="585.9" y="556.5">2000</text><text x="710.2" y="556.5">2010</text><text x="772.4" y="556.5">2015</text></g><g class="VerticalAxis" fill="#666" dominant-baseline="middle" text-anchor="end" font-size="16.2"><text x="83.53" y="535.3">0</text><text x="83.53" y="419.7">5 million</text><text x="83.53" y="304.1">10 million</text><text x="83.53" y="188.4">15 million</text></g><g class="AxisGridLines"><path stroke="#ccc" d="M88.53 535.3h683.89"/><path stroke="#ddd" stroke-dasharray="3,2" d="M88.53 419.7h683.89M88.53 304.1h683.89M88.53 188.4h683.89"/></g><g class="AxisGridLines" stroke="#ddd" stroke-dasharray="3,2"><path d="M88.5 535.3V75M212.9 535.3V75M337.2 535.3V75M461.6 535.3V75M585.9 535.3V75M710.2 535.3V75"/></g></g><g clip-path="url(#a)"><g class="HeightedLegend clickable"><g class="legendMark"><path fill="#3360a9" d="M782.42 396.55h10v2.5h-10z"/><text font-size="14.4" x="797.4" y="402.1" fill="#333"><tspan x="797.42" y="402.12">World</tspan></text></g></g><g class="Lines"><g class="key-World_0"><path stroke="#3360a9" stroke-linecap="round" d="M89 117l12-1 12-4 13-7 12-18 13-6 12-6h13l12 11 12 39 13 12 12 7 13 7 12 8 13 9 12 7 13 9 12 10 12 8 13 6 12 5 13 5 12 3 13 1 12 2 12 2 13 1 12 2 13 3 12 4 13 5 12 6 12 8 13 10 12 8 13 8 12 7 13 5 12 5 13 5 12 6 12 6 13 7 12 7 13 7 12 7 13 7 12 6 12 6 13 6 12 5 13 6 12 6 13 4 12 5 12 4" fill="none" stroke-width="1.5"/><g fill="#3360a9"><circle cx="89" cy="117" r="2"/><circle cx="101" cy="116" r="2"/><circle cx="113" cy="112" r="2"/><circle cx="126" cy="105" r="2"/><circle cx="138" cy="87" r="2"/><circle cx="151" cy="81" r="2"/><circle cx="163" cy="75" r="2"/><circle cx="176" cy="75" r="2"/><circle cx="188" cy="86" r="2"/><circle cx="200" cy="125" r="2"/><circle cx="213" cy="137" r="2"/><circle cx="225" cy="144" r="2"/><circle cx="238" cy="151" r="2"/><circle cx="250" cy="159" r="2"/><circle cx="263" cy="168" r="2"/><circle cx="275" cy="175" r="2"/><circle cx="288" cy="184" r="2"/><circle cx="300" cy="194" r="2"/><circle cx="312" cy="202" r="2"/><circle cx="325" cy="208" r="2"/><circle cx="337" cy="213" r="2"/><circle cx="350" cy="218" r="2"/><circle cx="362" cy="221" r="2"/><circle cx="375" cy="222" r="2"/><circle cx="387" cy="224" r="2"/><circle cx="399" cy="226" r="2"/><circle cx="412" cy="227" r="2"/><circle cx="424" cy="229" r="2"/><circle cx="437" cy="232" r="2"/><circle cx="449" cy="236" r="2"/><circle cx="462" cy="241" r="2"/><circle cx="474" cy="247" r="2"/><circle cx="486" cy="255" r="2"/><circle cx="499" cy="265" r="2"/><circle cx="511" cy="273" r="2"/><circle cx="524" cy="281" r="2"/><circle cx="536" cy="288" r="2"/><circle cx="549" cy="293" r="2"/><circle cx="561" cy="298" r="2"/><circle cx="574" cy="303" r="2"/><circle cx="586" cy="309" r="2"/><circle cx="598" cy="315" r="2"/><circle cx="611" cy="322" r="2"/><circle cx="623" cy="329" r="2"/><circle cx="636" cy="336" r="2"/><circle cx="648" cy="343" r="2"/><circle cx="661" cy="350" r="2"/><circle cx="673" cy="356" r="2"/><circle cx="685" cy="362" r="2"/><circle cx="698" cy="368" r="2"/><circle cx="710" cy="373" r="2"/><circle cx="723" cy="379" r="2"/><circle cx="735" cy="385" r="2"/><circle cx="748" cy="389" r="2"/><circle cx="760" cy="394" r="2"/><circle cx="772" cy="398" r="2"/></g></g></g></g></g><g class="SourcesFooter" fill="#777"><g class="clickable" fill="#777"><text font-size="12.6" x="15" y="581.6"><tspan x="15" y="581.58">Source: World Bank – WDI</tspan></text></g><text font-size="12.6" x="564.2" y="581.6"><tspan x="564.23" y="581.58"><a target="_blank" href="https://ourworldindata.org/child-mortality/" fill="#777">OurWorldInData.org/child-mortality/</a> • <a href="http://creativecommons.org/licenses/by-sa/4.0/deed.en_US" target="_blank" fill="#777">CC BY-SA</a></tspan></text></g></g></svg>

<svg xmlns="http://www.w3.org/2000/svg" version="1.1" style="font-family: 'Helvetica Neue', Helvetica, Arial, sans-serif; font-size: 18px; background-color: white; text-rendering: optimizeLegibility; -webkit-font-smoothing: antialiased;" width="850" height="600"><g class="ChartTab"><g class="HeaderView"><g opacity="0.8" transform="translate(770, 15) scale(0.31)"><a xmlns:xlink="http://www.w3.org/1999/xlink" xlink:href="https://ourworldindata.org" target="_blank"><g><rect x="0" y="0" fill="#1B2543" width="211.2" height="130.1"/><rect x="0" y="112.2" fill="#E63912" width="211.2" height="17.9"/><g><rect x="1.2" y="12.3" fill="none" width="210.2" height="99.2"/><path fill="#FFFFFF" d="M37.8,32.2c0,12.7-7.7,19.4-17.1,19.4c-9.7,0-16.6-7.5-16.6-18.7c0-11.7,7.3-19.3,17.1-19.3 C31.3,13.7,37.8,21.3,37.8,32.2z M9.2,32.8c0,7.9,4.3,14.9,11.8,14.9c7.5,0,11.8-6.9,11.8-15.3c0-7.3-3.8-14.9-11.8-14.9 C13.1,17.5,9.2,24.8,9.2,32.8z"/><path fill="#FFFFFF" d="M62.7,43.8c0,2.7,0.1,5.1,0.2,7.2h-4.3l-0.3-4.3h-0.1c-1.3,2.1-4,4.9-8.8,4.9c-4.2,0-9.1-2.3-9.1-11.6 V24.6h4.8v14.6c0,5,1.5,8.4,5.9,8.4c3.2,0,5.5-2.2,6.3-4.4c0.3-0.7,0.4-1.6,0.4-2.5V24.6h4.8V43.8z"/><path fill="#FFFFFF" d="M67.3,32.8c0-3.1-0.1-5.8-0.2-8.2h4.2l0.2,5.2h0.2c1.2-3.5,4.1-5.8,7.3-5.8c0.5,0,0.9,0.1,1.4,0.2v4.5 c-0.5-0.1-1-0.2-1.6-0.2c-3.4,0-5.8,2.6-6.5,6.2c-0.1,0.7-0.2,1.4-0.2,2.2V51h-4.8V32.8z"/><path fill="#FFFFFF" d="M95.4,51l-9.4-36.8h5l4.4,18.6c1.1,4.6,2.1,9.2,2.7,12.7h0.1c0.6-3.7,1.8-8,3-12.8l4.9-18.5h5l4.5,18.7 c1,4.4,2,8.7,2.6,12.6h0.1c0.8-4,1.8-8.1,3-12.7l4.9-18.5h4.9L120.6,51h-5L111,31.9c-1.1-4.7-1.9-8.3-2.4-12h-0.1 c-0.7,3.7-1.5,7.3-2.8,12L100.4,51H95.4z"/><path fill="#FFFFFF" d="M154.9,37.6c0,9.8-6.8,14-13.2,14c-7.2,0-12.7-5.2-12.7-13.6c0-8.8,5.8-14,13.1-14 C149.8,24,154.9,29.5,154.9,37.6z M133.9,37.9c0,5.8,3.3,10.1,8,10.1c4.6,0,8-4.3,8-10.3c0-4.5-2.2-10.1-7.9-10.1 C136.3,27.6,133.9,32.8,133.9,37.9z"/><path fill="#FFFFFF" d="M158.2,32.8c0-3.1-0.1-5.8-0.2-8.2h4.2l0.2,5.2h0.2c1.2-3.5,4.1-5.8,7.3-5.8c0.5,0,0.9,0.1,1.4,0.2v4.5 c-0.5-0.1-1-0.2-1.6-0.2c-3.4,0-5.8,2.6-6.5,6.2c-0.1,0.7-0.2,1.4-0.2,2.2V51h-4.8V32.8z"/><path fill="#FFFFFF" d="M173.5,12.3h4.8V51h-4.8V12.3z"/><path fill="#FFFFFF" d="M206.5,12.3v31.9c0,2.3,0.1,5,0.2,6.8h-4.3l-0.2-4.6H202c-1.5,2.9-4.7,5.2-9,5.2 c-6.4,0-11.3-5.4-11.3-13.4c-0.1-8.8,5.4-14.2,11.9-14.2c4,0,6.8,1.9,8,4h0.1V12.3H206.5z M201.7,35.4c0-0.6-0.1-1.4-0.2-2 c-0.7-3.1-3.3-5.6-6.9-5.6c-5,0-7.9,4.4-7.9,10.2c0,5.3,2.6,9.8,7.8,9.8c3.2,0,6.2-2.1,7.1-5.7c0.2-0.7,0.2-1.3,0.2-2.1V35.4z"/><path fill="#FFFFFF" d="M42.8,64c0.1,1.6-1.1,2.9-3.1,2.9c-1.7,0-2.9-1.3-2.9-2.9c0-1.7,1.3-3,3-3C41.7,61,42.8,62.3,42.8,64z M37.4,97.8V71.4h4.8v26.4H37.4z"/><path fill="#FFFFFF" d="M47.5,78.6c0-2.7-0.1-5-0.2-7.1h4.3l0.3,4.4h0.1c1.3-2.5,4.4-5,8.8-5c3.7,0,9.4,2.2,9.4,11.2v15.8h-4.8 V82.6c0-4.3-1.6-7.8-6.1-7.8c-3.2,0-5.6,2.2-6.5,4.9c-0.2,0.6-0.3,1.4-0.3,2.2v15.9h-4.8V78.6z"/><path fill="#FFFFFF" d="M84,61.6c2.9-0.4,6.3-0.8,10.1-0.8c6.8,0,11.7,1.6,14.9,4.6c3.3,3,5.2,7.3,5.2,13.2c0,6-1.9,10.9-5.3,14.3 c-3.4,3.4-9.1,5.3-16.3,5.3c-3.4,0-6.2-0.2-8.6-0.4V61.6z M88.8,94.1c1.2,0.2,3,0.3,4.8,0.3c10.2,0,15.7-5.7,15.7-15.6 c0.1-8.7-4.9-14.2-14.9-14.2c-2.5,0-4.3,0.2-5.6,0.5V94.1z"/><path fill="#FFFFFF" d="M132.1,97.8l-0.4-3.3h-0.2c-1.5,2.1-4.3,3.9-8.1,3.9c-5.4,0-8.1-3.8-8.1-7.6c0-6.4,5.7-9.9,15.9-9.8v-0.5 c0-2.2-0.6-6.1-6-6.1c-2.5,0-5,0.8-6.9,2l-1.1-3.2c2.2-1.4,5.4-2.3,8.7-2.3c8.1,0,10.1,5.5,10.1,10.8v9.9c0,2.3,0.1,4.5,0.4,6.3 H132.1z M131.4,84.4c-5.3-0.1-11.2,0.8-11.2,5.9c0,3.1,2.1,4.6,4.5,4.6c3.4,0,5.6-2.2,6.4-4.4c0.2-0.5,0.3-1,0.3-1.5V84.4z"/><path fill="#FFFFFF" d="M146.6,63.9v7.6h6.9v3.7h-6.9v14.2c0,3.3,0.9,5.1,3.6,5.1c1.3,0,2.2-0.2,2.8-0.3l0.2,3.6 c-0.9,0.4-2.4,0.7-4.3,0.7c-2.2,0-4-0.7-5.2-2c-1.4-1.4-1.9-3.8-1.9-6.9V75.1h-4.1v-3.7h4.1v-6.3L146.6,63.9z"/><path fill="#FFFFFF" d="M171.4,97.8l-0.4-3.3h-0.2c-1.5,2.1-4.3,3.9-8.1,3.9c-5.4,0-8.1-3.8-8.1-7.6c0-6.4,5.7-9.9,15.9-9.8v-0.5 c0-2.2-0.6-6.1-6-6.1c-2.5,0-5,0.8-6.9,2l-1.1-3.2c2.2-1.4,5.4-2.3,8.7-2.3c8.1,0,10.1,5.5,10.1,10.8v9.9c0,2.3,0.1,4.5,0.4,6.3 H171.4z M170.7,84.4c-5.3-0.1-11.2,0.8-11.2,5.9c0,3.1,2.1,4.6,4.5,4.6c3.4,0,5.6-2.2,6.4-4.4c0.2-0.5,0.3-1,0.3-1.5V84.4z"/></g></g></a></g><a href="https://ourworldindata.org/grapher/child-deaths-UN-data" target="_blank"><text font-size="27.00" x="15.0" y="36.6" fill="#555"><tspan x="15" y="36.6">Child deaths per year</tspan></text></a></g><g class="LineChart"><defs><clipPath id="boundsClip-61"><rect x="78.526" y="0" width="830" height="963"></rect></clipPath></defs><g class="AxisBoxView"><g class="HorizontalAxis"><text x="88.5" y="556.5" fill="#666" text-anchor="middle" font-size="16.2">1960</text><text x="212.9" y="556.5" fill="#666" text-anchor="middle" font-size="16.2">1970</text><text x="337.2" y="556.5" fill="#666" text-anchor="middle" font-size="16.2">1980</text><text x="461.6" y="556.5" fill="#666" text-anchor="middle" font-size="16.2">1990</text><text x="585.9" y="556.5" fill="#666" text-anchor="middle" font-size="16.2">2000</text><text x="710.2" y="556.5" fill="#666" text-anchor="middle" font-size="16.2">2010</text><text x="772.4" y="556.5" fill="#666" text-anchor="middle" font-size="16.2">2015</text></g><g class="VerticalAxis"><text x="83.53" y="535.3" fill="#666" dominant-baseline="middle" text-anchor="end" font-size="16.2">0</text><text x="83.53" y="419.7" fill="#666" dominant-baseline="middle" text-anchor="end" font-size="16.2">5 million</text><text x="83.53" y="304.1" fill="#666" dominant-baseline="middle" text-anchor="end" font-size="16.2">10 million</text><text x="83.53" y="188.4" fill="#666" dominant-baseline="middle" text-anchor="end" font-size="16.2">15 million</text></g><g class="AxisGridLines"><line x1="88.53" y1="535.3" x2="772.42" y2="535.3" stroke="#ccc"></line><line x1="88.53" y1="419.7" x2="772.42" y2="419.7" stroke="#ddd" stroke-dasharray="3,2"></line><line x1="88.53" y1="304.1" x2="772.42" y2="304.1" stroke="#ddd" stroke-dasharray="3,2"></line><line x1="88.53" y1="188.4" x2="772.42" y2="188.4" stroke="#ddd" stroke-dasharray="3,2"></line></g><g class="AxisGridLines"><line x1="88.5" y1="535.30" x2="88.5" y2="75.00" stroke="#ddd" stroke-dasharray="3,2"></line><line x1="212.9" y1="535.30" x2="212.9" y2="75.00" stroke="#ddd" stroke-dasharray="3,2"></line><line x1="337.2" y1="535.30" x2="337.2" y2="75.00" stroke="#ddd" stroke-dasharray="3,2"></line><line x1="461.6" y1="535.30" x2="461.6" y2="75.00" stroke="#ddd" stroke-dasharray="3,2"></line><line x1="585.9" y1="535.30" x2="585.9" y2="75.00" stroke="#ddd" stroke-dasharray="3,2"></line><line x1="710.2" y1="535.30" x2="710.2" y2="75.00" stroke="#ddd" stroke-dasharray="3,2"></line></g></g><g clip-path="url(#boundsClip-61)"><g class="HeightedLegend clickable"><g class="legendMark"><rect x="782.4159999999999" y="390.6" width="52.584" height="14.4" fill="#fff" opacity="0"></rect><rect x="782.4159999999999" y="396.55" width="10" height="2.5" fill="#3360a9"></rect><text font-size="14.40" x="797.4" y="402.1" fill="#333"><tspan x="797.4159999999999" y="402.12">World</tspan></text></g></g><g class="Lines"><rect x="89" y="75" width="684" height="460" fill="rgba(255,255,255,0)" opacity="0"></rect><g class="key-World_0"><path stroke="#3360a9" stroke-linecap="round" d="M89 117L101 116L113 112L126 105L138 87L151 81L163 75L176 75L188 86L200 125L213 137L225 144L238 151L250 159L263 168L275 175L288 184L300 194L312 202L325 208L337 213L350 218L362 221L375 222L387 224L399 226L412 227L424 229L437 232L449 236L462 241L474 247L486 255L499 265L511 273L524 281L536 288L549 293L561 298L574 303L586 309L598 315L611 322L623 329L636 336L648 343L661 350L673 356L685 362L698 368L710 373L723 379L735 385L748 389L760 394L772 398" fill="none" stroke-width="1.5"></path><g fill="#3360a9"><circle cx="89" cy="117" r="2"></circle><circle cx="101" cy="116" r="2"></circle><circle cx="113" cy="112" r="2"></circle><circle cx="126" cy="105" r="2"></circle><circle cx="138" cy="87" r="2"></circle><circle cx="151" cy="81" r="2"></circle><circle cx="163" cy="75" r="2"></circle><circle cx="176" cy="75" r="2"></circle><circle cx="188" cy="86" r="2"></circle><circle cx="200" cy="125" r="2"></circle><circle cx="213" cy="137" r="2"></circle><circle cx="225" cy="144" r="2"></circle><circle cx="238" cy="151" r="2"></circle><circle cx="250" cy="159" r="2"></circle><circle cx="263" cy="168" r="2"></circle><circle cx="275" cy="175" r="2"></circle><circle cx="288" cy="184" r="2"></circle><circle cx="300" cy="194" r="2"></circle><circle cx="312" cy="202" r="2"></circle><circle cx="325" cy="208" r="2"></circle><circle cx="337" cy="213" r="2"></circle><circle cx="350" cy="218" r="2"></circle><circle cx="362" cy="221" r="2"></circle><circle cx="375" cy="222" r="2"></circle><circle cx="387" cy="224" r="2"></circle><circle cx="399" cy="226" r="2"></circle><circle cx="412" cy="227" r="2"></circle><circle cx="424" cy="229" r="2"></circle><circle cx="437" cy="232" r="2"></circle><circle cx="449" cy="236" r="2"></circle><circle cx="462" cy="241" r="2"></circle><circle cx="474" cy="247" r="2"></circle><circle cx="486" cy="255" r="2"></circle><circle cx="499" cy="265" r="2"></circle><circle cx="511" cy="273" r="2"></circle><circle cx="524" cy="281" r="2"></circle><circle cx="536" cy="288" r="2"></circle><circle cx="549" cy="293" r="2"></circle><circle cx="561" cy="298" r="2"></circle><circle cx="574" cy="303" r="2"></circle><circle cx="586" cy="309" r="2"></circle><circle cx="598" cy="315" r="2"></circle><circle cx="611" cy="322" r="2"></circle><circle cx="623" cy="329" r="2"></circle><circle cx="636" cy="336" r="2"></circle><circle cx="648" cy="343" r="2"></circle><circle cx="661" cy="350" r="2"></circle><circle cx="673" cy="356" r="2"></circle><circle cx="685" cy="362" r="2"></circle><circle cx="698" cy="368" r="2"></circle><circle cx="710" cy="373" r="2"></circle><circle cx="723" cy="379" r="2"></circle><circle cx="735" cy="385" r="2"></circle><circle cx="748" cy="389" r="2"></circle><circle cx="760" cy="394" r="2"></circle><circle cx="772" cy="398" r="2"></circle></g></g></g></g></g><g style="fill: #777;" class="SourcesFooter"><g style="fill: #777;" class="clickable"><text font-size="12.60" x="15.0" y="581.6"><tspan x="15" y="581.58">Source: World Bank – WDI</tspan></text></g><text font-size="12.60" x="564.2" y="581.6"><tspan x="564.226" y="581.58"><a target='_blank' style='fill: #777;' href='https://ourworldindata.org/child-mortality/'>OurWorldInData.org/child-mortality/</a> • <a style="fill: #777;" href="http://creativecommons.org/licenses/by-sa/4.0/deed.en_US" target="_blank">CC BY-SA</a></tspan></text></g></g></svg>
